data/styles/clear/style-night/symbols/hostel-m.svg

<?xml version="1.0" encoding="UTF-8"?>
<svg width="24px" height="24px" viewBox="0 0 24 24" version="1.1" xmlns="http://www.w3.org/2000/svg" xmlns:xlink="http://www.w3.org/1999/xlink">
    <title>hostel-m</title>
    <g id="Page-2:-Night" stroke="none" stroke-width="1" fill="none" fill-rule="evenodd" opacity="0.6">
        <g id="hostel-m" fill-rule="nonzero">
            <circle id="Oval" fill="#FFFFFF" cx="12" cy="12" r="12"></circle>
            <circle id="Oval" fill="#664E42" cx="12" cy="12" r="11"></circle>
            <path d="M17.6,6 L17.6,8.8 L17.1146667,8.8 C16.9982333,7.99742083 16.3109792,7.40154583 15.5,7.4 L10.6,7.4 L10.6,8.8 L10.0036,8.8 C10.0875708,8.65874583 10.1323708,8.49765833 10.1333333,8.33333333 C10.1333333,7.81787083 9.7154625,7.4 9.2,7.4 L7.8,7.4 C7.2845375,7.4 6.86666667,7.81787083 6.86666667,8.33333333 C6.86762917,8.49765833 6.91242917,8.65874583 6.9964,8.8 L6.4,8.8 L6.4,6 L5,6 L5,18.1333333 L6.4,18.1333333 L6.4,16.7333333 L17.6,16.7333333 L17.6,18.1333333 L19,18.1333333 L19,6 L17.6,6 Z M11.0666667,7.86666667 L15.5,7.86666667 C16.144,7.867425 16.6659083,8.38933333 16.6666667,9.03333333 L16.6666667,9.73333333 L11.0666667,9.73333333 L11.0666667,7.86666667 Z M7.8,7.86666667 L9.2,7.86666667 C9.45774583,7.86666667 9.66666667,8.0755875 9.66666667,8.33333333 C9.66666667,8.59107917 9.45774583,8.8 9.2,8.8 L7.8,8.8 C7.54225417,8.8 7.33333333,8.59107917 7.33333333,8.33333333 C7.33333333,8.0755875 7.54225417,7.86666667 7.8,7.86666667 Z M5.46666667,6.46666667 L5.93333333,6.46666667 L5.93333333,8.8 L5.46666667,8.8 L5.46666667,6.46666667 Z M5.46666667,11.1333333 L5.93333333,11.1333333 L5.93333333,14.4 L5.46666667,14.4 L5.46666667,11.1333333 Z M5.93333333,17.6666667 L5.46666667,17.6666667 L5.46666667,16.7333333 L5.93333333,16.7333333 L5.93333333,17.6666667 Z M18.5333333,17.6666667 L18.0666667,17.6666667 L18.0666667,16.7333333 L18.5333333,16.7333333 L18.5333333,17.6666667 Z M18.5333333,16.2666667 L5.46666667,16.2666667 L5.46666667,14.8666667 L10.6,14.8666667 L10.6,15.8 L17.1333333,15.8 L17.1333333,14.8666667 L18.5333333,14.8666667 L18.5333333,16.2666667 Z M15.5,13 L10.6,13 L10.6,14.4 L10.0036,14.4 C10.0875708,14.2587458 10.1323708,14.0976583 10.1333333,13.9333333 C10.1333333,13.4178708 9.7154625,13 9.2,13 L7.8,13 C7.2845375,13 6.86666667,13.4178708 6.86666667,13.9333333 C6.86762917,14.0976583 6.91242917,14.2587458 6.9964,14.4 L6.4,14.4 L6.4,11.1333333 L17.6,11.1333333 L17.6,14.4 L17.1146667,14.4 C16.9982042,13.5974208 16.3109792,13.0015458 15.5,13 Z M16.6666667,14.6333333 L16.6666667,15.3333333 L11.0666667,15.3333333 L11.0666667,13.4666667 L15.5,13.4666667 C16.144,13.467425 16.6659083,13.9893333 16.6666667,14.6333333 Z M9.66666667,13.9333333 C9.66666667,14.1910792 9.45774583,14.4 9.2,14.4 L7.8,14.4 C7.54225417,14.4 7.33333333,14.1910792 7.33333333,13.9333333 C7.33333333,13.6755875 7.54225417,13.4666667 7.8,13.4666667 L9.2,13.4666667 C9.45774583,13.4666667 9.66666667,13.6755875 9.66666667,13.9333333 Z M18.5333333,14.4 L18.0666667,14.4 L18.0666667,11.1333333 L18.5333333,11.1333333 L18.5333333,14.4 Z M18.5333333,10.6666667 L5.46666667,10.6666667 L5.46666667,9.26666667 L10.6,9.26666667 L10.6,10.2 L17.1333333,10.2 L17.1333333,9.26666667 L18.5333333,9.26666667 L18.5333333,10.6666667 Z M18.5333333,8.8 L18.0666667,8.8 L18.0666667,6.46666667 L18.5333333,6.46666667 L18.5333333,8.8 Z" id="Shape" fill="#FFFFFF"></path>
        </g>
    </g>
</svg>

<?xml version="1.0" encoding="UTF-8"?>
<svg xmlns:dc="http://purl.org/dc/elements/1.1/" xmlns:cc="http://creativecommons.org/ns#" xmlns:rdf="http://www.w3.org/1999/02/22-rdf-syntax-ns#" xmlns:svg="http://www.w3.org/2000/svg" xmlns="http://www.w3.org/2000/svg" version="1.1" viewBox="0 0 24 24" height="24px" width="24px">
  <title>hostel-m</title>
  <g opacity="0.6" fill-rule="evenodd" fill="none" stroke-width="1" stroke="none" id="Page-2:-Night">
    <g fill-rule="nonzero" id="hostel-m">
      <circle r="12" cy="12" cx="12" fill="#FFFFFF"/>
      <circle r="11" cy="12" cx="12" fill="#664E42"/>
      <path fill="#ffffff" id="Shape" d="M 17.6,6 V 8.8 H 17.114667 C 16.998233,7.9974208 16.310979,7.4015458 15.5,7.4 H 10.6 V 8.8 H 10.0036 C 10.087571,8.6587458 10.132371,8.4976583 10.133333,8.3333333 10.133333,7.8178708 9.7154625,7.4 9.2,7.4 H 7.8 C 7.2845375,7.4 6.8666667,7.8178708 6.8666667,8.3333333 6.8676292,8.4976583 6.9124292,8.6587458 6.9964,8.8 H 6.4 V 6 H 5 v 12.133333 h 1.4 v -1.4 h 11.2 v 1.4 H 19 V 6 Z m -2.1,7 h -4.9 v 1.4 h -0.5964 c 0.08397,-0.141254 0.128771,-0.302342 0.129733,-0.466667 C 10.133333,13.417871 9.7154625,13 9.2,13 H 7.8 C 7.2845375,13 6.8666667,13.417871 6.8666667,13.933333 6.8676292,14.097658 6.9124292,14.258746 6.9964,14.4 H 6.4 V 11.133333 H 17.6 V 14.4 H 17.114667 C 16.998204,13.597421 16.310979,13.001546 15.5,13 Z"/>
    </g>
  </g>
</svg>
